src/raw/car-service/icon_24.svg

<svg width="24" height="24" viewBox="0 0 24 24" fill="none" xmlns="http://www.w3.org/2000/svg">
<path d="M0.776855 15.643C0.776855 13.9861 2.12 12.643 3.77686 12.643H20.2229C21.8798 12.643 23.2229 13.9862 23.2229 15.643V18.2828C23.2229 18.8351 22.7752 19.2828 22.2229 19.2828H1.77685C1.22457 19.2828 0.776855 18.8351 0.776855 18.2828V15.643Z" stroke="#71717A" stroke-width="1.5"/>
<path d="M4 16H6" stroke="#71717A" stroke-width="1.5" stroke-linecap="round" stroke-linejoin="round"/>
<path d="M20 16H18" stroke="#71717A" stroke-width="1.5" stroke-linecap="round" stroke-linejoin="round"/>
<path d="M1.5249 19.2828V20.7375C1.5249 21.5639 2.19486 22.2339 3.02131 22.2339V22.2339C3.84775 22.2339 4.51771 21.5639 4.51771 20.7375V19.2828" stroke="#71717A" stroke-width="1.5"/>
<path d="M19.4819 19.2828V20.7375C19.4819 21.5639 20.1519 22.2339 20.9783 22.2339V22.2339C21.8048 22.2339 22.4747 21.5639 22.4747 20.7375V19.2828" stroke="#71717A" stroke-width="1.5"/>
<path d="M3.02148 12.643L4.89199 7.84756" stroke="#71717A" stroke-width="1.5" stroke-linecap="round"/>
<path d="M20.9785 12.643L19.108 7.84756" stroke="#71717A" stroke-width="1.5" stroke-linecap="round"/>
<path d="M11.1179 1.75066C11.4946 1.04595 12.5049 1.04595 12.8817 1.75066L13.4377 2.79074C13.5945 3.08408 13.8869 3.28024 14.2178 3.31409L15.2563 3.42033C16.1474 3.51148 16.4784 4.63815 15.7783 5.19681L15.2243 5.63878C14.9236 5.87874 14.7872 6.26995 14.8735 6.64488L15.0502 7.41189C15.2385 8.2297 14.3965 8.90177 13.6408 8.5368L12.4347 7.9543C12.1599 7.82161 11.8396 7.82161 11.5649 7.9543L10.3588 8.5368C9.60306 8.90177 8.76103 8.2297 8.94937 7.41189L9.12602 6.64488C9.21236 6.26995 9.07595 5.87874 8.77521 5.63878L8.22128 5.19681C7.52111 4.63815 7.85211 3.51148 8.7432 3.42033L9.78173 3.31409C10.1126 3.28024 10.405 3.08408 10.5618 2.79074L11.1179 1.75066Z" stroke="#71717A" stroke-width="1.5"/>
</svg>

<svg xmlns="http://www.w3.org/2000/svg" width="24" height="24" fill="none" viewBox="0 0 24 24">
  <path stroke="#3F3F46" stroke-width="1.5"
    d="M.777 15.643a3 3 0 0 1 3-3h16.446a3 3 0 0 1 3 3v2.64a1 1 0 0 1-1 1H1.777a1 1 0 0 1-1-1v-2.64Z" />
  <path stroke="#3F3F46" stroke-linecap="round" stroke-linejoin="round" stroke-width="1.5"
    d="M4 16h2M20 16h-2" />
  <path stroke="#3F3F46" stroke-width="1.5"
    d="M1.525 19.283v1.454a1.496 1.496 0 1 0 2.993 0v-1.454M19.482 19.283v1.454a1.496 1.496 0 1 0 2.993 0v-1.454" />
  <path stroke="#3F3F46" stroke-linecap="round" stroke-width="1.5"
    d="m3.021 12.643 1.871-4.795M20.979 12.643l-1.871-4.795" />
  <path stroke="#3F3F46" stroke-width="1.5"
    d="M11.118 1.75a1 1 0 0 1 1.764 0l.556 1.04a1 1 0 0 0 .78.524l1.038.106c.891.091 1.222 1.218.522 1.777l-.554.442a1 1 0 0 0-.35 1.006l.176.767a1 1 0 0 1-1.41 1.125l-1.205-.583a1 1 0 0 0-.87 0l-1.206.583a1 1 0 0 1-1.41-1.125l.177-.767a1 1 0 0 0-.35-1.006l-.555-.442c-.7-.559-.369-1.686.522-1.777l1.039-.106a1 1 0 0 0 .78-.523l.556-1.04Z" />
</svg>
